svgs/light/arrows-repeat-1.svg

<svg xmlns="http://www.w3.org/2000/svg" viewBox="0 0 512 512"><!--! Font Awesome Pro 6.3.0 by @fontawesome - https://fontawesome.com License - https://fontawesome.com/license (Commercial License) Copyright 2023 Fonticons, Inc. --><path d="M176 112h211.8l-62.05 51.72c-3.794 3.164-5.754 7.718-5.754 12.3C319.1 186.8 329.3 192 336 192c3.609 0 7.234-1.219 10.23-3.719l96-80C445.9 105.3 448 100.7 448 95.1s-2.109-9.248-5.75-12.28l-96-80c-2.99-2.502-6.619-3.716-10.23-3.716c-6.754 0-16.03 5.286-16.03 15.98c0 4.585 1.96 9.139 5.754 12.3L387.8 80H176C78.95 80 0 158.1 0 255.1C0 264.8 7.156 272 16 272S32.01 264.8 32.01 256C32.01 176.6 96.59 112 176 112zM272 320c8.844 0 16-7.156 16-16v-96C288 199.2 280.8 192 272 192h-32C231.2 192 224 199.2 224 208S231.2 224 240 224H256v80C256 312.8 263.2 320 272 320zM496 240c-8.844 0-16.01 7.156-16.01 16c0 79.41-64.59 144-143.1 144H124.2l62.05-51.72c3.794-3.164 5.754-7.718 5.754-12.3c0-10.72-9.208-15.96-15.1-15.96c-3.611 0-7.249 1.212-10.26 3.703l-96 80C66.11 406.8 64 411.3 64 416s2.109 9.25 5.75 12.28l96 80C168.8 510.8 172.4 512 175.1 512c6.715 0 16.02-5.265 16.02-15.98c0-4.585-1.96-9.139-5.754-12.3L124.2 432H336c97.05 0 176-78.97 176-176C512 247.2 504.8 240 496 240z"/></svg>

<svg xmlns="http://www.w3.org/2000/svg" viewBox="0 0 512 512"><!-- Font Awesome Pro 6.0.0-alpha2 by @fontawesome - https://fontawesome.com License - https://fontawesome.com/license (Commercial License) --><path d="M176 112H387.803L325.75 163.719C321.956 166.883 319.996 171.437 319.996 176.022C319.996 186.771 329.259 192 336.016 192C339.625 192 343.25 190.781 346.25 188.281L442.25 108.281C445.891 105.25 448 100.75 448 96S445.891 86.75 442.25 83.719L346.25 3.715C343.26 1.213 339.631 -0.001 336.023 -0.001C329.269 -0.001 319.996 5.284 319.996 15.974C319.996 20.559 321.956 25.113 325.75 28.277L387.803 80H176C78.953 80 0 158.969 0 256C0 264.844 7.156 272 16 272S32 264.844 32 256C32 176.594 96.594 112 176 112ZM272 320C280.844 320 288 312.844 288 304V208C288 199.156 280.844 192 272 192H240C231.156 192 224 199.156 224 208S231.156 224 240 224H256V304C256 312.844 263.156 320 272 320ZM496 240C487.156 240 480 247.156 480 256C480 335.406 415.406 400 336 400H124.197L186.25 348.281C190.044 345.117 192.004 340.563 192.004 335.978C192.004 325.262 182.796 320.016 176.006 320.016C172.395 320.016 168.757 321.228 165.75 323.719L69.75 403.719C66.109 406.75 64 411.25 64 416S66.109 425.25 69.75 428.281L165.75 508.281C168.75 510.781 172.375 512 175.984 512C182.699 512 192.004 506.735 192.004 496.022C192.004 491.437 190.044 486.883 186.25 483.719L124.197 432H336C433.047 432 512 353.031 512 256C512 247.156 504.844 240 496 240Z "></path></svg>
